public/logo.svg

<svg width="470" height="201" viewBox="0 0 470 201" fill="none" xmlns="http://www.w3.org/2000/svg">
<path d="M22.94 93.8C20.1 93.8 17.46 93.2 15.02 92C12.58 90.76 10.46 89.1 8.66 87.02C6.86 84.94 5.46 82.62 4.46 80.06C3.5 77.5 3.02 74.86 3.02 72.14C3.02 69.26 3.5 66.54 4.46 63.98C5.46 61.38 6.84 59.08 8.6 57.08C10.36 55.08 12.44 53.5 14.84 52.34C17.24 51.18 19.86 50.6 22.7 50.6C26.9 50.6 30.32 51.46 32.96 53.18C35.6 54.9 37.6 57.14 38.96 59.9L35.72 62.06C34.36 59.42 32.54 57.48 30.26 56.24C27.98 55 25.44 54.38 22.64 54.38C20.28 54.38 18.14 54.88 16.22 55.88C14.34 56.88 12.72 58.22 11.36 59.9C10 61.58 8.96 63.48 8.24 65.6C7.56 67.72 7.22 69.92 7.22 72.2C7.22 74.6 7.62 76.88 8.42 79.04C9.22 81.16 10.36 83.06 11.84 84.74C13.32 86.38 15.02 87.68 16.94 88.64C18.9 89.56 21 90.02 23.24 90.02C25.84 90.02 28.3 89.38 30.62 88.1C32.94 86.78 35.16 84.76 37.28 82.04V86.48C33.24 91.36 28.46 93.8 22.94 93.8ZM36.62 75.8H27.14V72.56H40.16V93.5H36.62V75.8ZM63.5492 65.84C60.8292 65.92 58.4292 66.68 56.3492 68.12C54.3092 69.56 52.8692 71.54 52.0292 74.06V93.5H47.9492V62.24H51.7892V69.74C52.8692 67.54 54.2892 65.76 56.0492 64.4C57.8492 63.04 59.7492 62.28 61.7492 62.12C62.1492 62.08 62.4892 62.06 62.7692 62.06C63.0892 62.06 63.3492 62.08 63.5492 62.12V65.84ZM81.4883 94.1C79.2483 94.1 77.1683 93.68 75.2483 92.84C73.3283 91.96 71.6683 90.78 70.2683 89.3C68.8683 87.78 67.7683 86.04 66.9683 84.08C66.2083 82.12 65.8283 80.02 65.8283 77.78C65.8283 74.86 66.4883 72.18 67.8083 69.74C69.1683 67.3 71.0283 65.36 73.3883 63.92C75.7483 62.44 78.4283 61.7 81.4283 61.7C84.5083 61.7 87.1883 62.44 89.4683 63.92C91.7883 65.4 93.6083 67.36 94.9283 69.8C96.2483 72.2 96.9083 74.84 96.9083 77.72C96.9083 78.04 96.9083 78.36 96.9083 78.68C96.9083 78.96 96.8883 79.18 96.8483 79.34H70.0883C70.2883 81.58 70.9083 83.58 71.9483 85.34C73.0283 87.06 74.4083 88.44 76.0883 89.48C77.8083 90.48 79.6683 90.98 81.6683 90.98C83.7083 90.98 85.6283 90.46 87.4283 89.42C89.2683 88.38 90.5483 87.02 91.2683 85.34L94.8083 86.3C94.1683 87.78 93.1883 89.12 91.8683 90.32C90.5483 91.52 88.9883 92.46 87.1883 93.14C85.4283 93.78 83.5283 94.1 81.4883 94.1ZM69.9683 76.4H93.0683C92.9083 74.12 92.2883 72.12 91.2083 70.4C90.1683 68.68 88.7883 67.34 87.0683 66.38C85.3883 65.38 83.5283 64.88 81.4883 64.88C79.4483 64.88 77.5883 65.38 75.9083 66.38C74.2283 67.34 72.8483 68.7 71.7683 70.46C70.7283 72.18 70.1283 74.16 69.9683 76.4ZM100.683 84.5C100.683 82.54 101.243 80.86 102.363 79.46C103.483 78.02 105.023 76.92 106.983 76.16C108.983 75.36 111.283 74.96 113.883 74.96C115.403 74.96 116.983 75.08 118.623 75.32C120.263 75.56 121.723 75.92 123.003 76.4V73.76C123.003 71.12 122.223 69.02 120.663 67.46C119.103 65.9 116.943 65.12 114.183 65.12C112.503 65.12 110.843 65.44 109.203 66.08C107.603 66.68 105.923 67.58 104.163 68.78L102.603 65.9C104.643 64.5 106.643 63.46 108.603 62.78C110.563 62.06 112.563 61.7 114.603 61.7C118.443 61.7 121.483 62.8 123.723 65C125.963 67.2 127.083 70.24 127.083 74.12V88.58C127.083 89.14 127.203 89.56 127.443 89.84C127.683 90.08 128.063 90.22 128.583 90.26V93.5C128.143 93.54 127.763 93.58 127.443 93.62C127.123 93.66 126.883 93.66 126.723 93.62C125.723 93.58 124.963 93.26 124.443 92.66C123.923 92.06 123.643 91.42 123.603 90.74L123.543 88.46C122.143 90.26 120.323 91.66 118.083 92.66C115.843 93.62 113.563 94.1 111.243 94.1C109.243 94.1 107.423 93.68 105.783 92.84C104.183 91.96 102.923 90.8 102.003 89.36C101.123 87.88 100.683 86.26 100.683 84.5ZM121.623 86.9C122.063 86.34 122.403 85.8 122.643 85.28C122.883 84.76 123.003 84.3 123.003 83.9V79.34C121.643 78.82 120.223 78.42 118.743 78.14C117.303 77.86 115.843 77.72 114.363 77.72C111.443 77.72 109.083 78.3 107.283 79.46C105.483 80.62 104.583 82.2 104.583 84.2C104.583 85.36 104.883 86.46 105.483 87.5C106.083 88.5 106.963 89.34 108.123 90.02C109.283 90.66 110.643 90.98 112.203 90.98C114.163 90.98 115.983 90.6 117.663 89.84C119.383 89.08 120.703 88.1 121.623 86.9ZM150.664 92C150.344 92.12 149.844 92.34 149.164 92.66C148.484 92.98 147.664 93.26 146.704 93.5C145.744 93.74 144.704 93.86 143.584 93.86C142.424 93.86 141.324 93.64 140.284 93.2C139.284 92.76 138.484 92.1 137.884 91.22C137.284 90.3 136.984 89.18 136.984 87.86V65.48H132.664V62.24H136.984V51.68H141.064V62.24H148.264V65.48H141.064V86.72C141.144 87.84 141.544 88.68 142.264 89.24C143.024 89.8 143.884 90.08 144.844 90.08C145.964 90.08 146.984 89.9 147.904 89.54C148.824 89.14 149.384 88.86 149.584 88.7L150.664 92ZM67.0119 149.5V106.9H85.0119C86.8519 106.9 88.5319 107.28 90.0519 108.04C91.5719 108.8 92.8919 109.84 94.0119 111.16C95.1719 112.44 96.0519 113.88 96.6519 115.48C97.2919 117.04 97.6119 118.64 97.6119 120.28C97.6119 122.32 97.2119 124.24 96.4119 126.04C95.6519 127.84 94.5519 129.36 93.1119 130.6C91.7119 131.84 90.0519 132.66 88.1319 133.06L98.5719 149.5H93.8319L83.8119 133.78H71.2119V149.5H67.0119ZM71.2119 130.06H85.1319C86.8119 130.06 88.2719 129.6 89.5119 128.68C90.7519 127.76 91.7119 126.56 92.3919 125.08C93.0719 123.56 93.4119 121.96 93.4119 120.28C93.4119 118.56 93.0119 116.98 92.2119 115.54C91.4519 114.06 90.4119 112.88 89.0919 112C87.8119 111.08 86.3719 110.62 84.7719 110.62H71.2119V130.06ZM117.934 150.1C115.694 150.1 113.614 149.68 111.694 148.84C109.774 147.96 108.114 146.78 106.714 145.3C105.314 143.78 104.214 142.04 103.414 140.08C102.654 138.12 102.274 136.02 102.274 133.78C102.274 130.86 102.934 128.18 104.254 125.74C105.614 123.3 107.474 121.36 109.834 119.92C112.194 118.44 114.874 117.7 117.874 117.7C120.954 117.7 123.634 118.44 125.914 119.92C128.234 121.4 130.054 123.36 131.374 125.8C132.694 128.2 133.354 130.84 133.354 133.72C133.354 134.04 133.354 134.36 133.354 134.68C133.354 134.96 133.334 135.18 133.294 135.34H106.534C106.734 137.58 107.354 139.58 108.394 141.34C109.474 143.06 110.854 144.44 112.534 145.48C114.254 146.48 116.114 146.98 118.114 146.98C120.154 146.98 122.074 146.46 123.874 145.42C125.714 144.38 126.994 143.02 127.714 141.34L131.254 142.3C130.614 143.78 129.634 145.12 128.314 146.32C126.994 147.52 125.434 148.46 123.634 149.14C121.874 149.78 119.974 150.1 117.934 150.1ZM106.414 132.4H129.514C129.354 130.12 128.734 128.12 127.654 126.4C126.614 124.68 125.234 123.34 123.514 122.38C121.834 121.38 119.974 120.88 117.934 120.88C115.894 120.88 114.034 121.38 112.354 122.38C110.674 123.34 109.294 124.7 108.214 126.46C107.174 128.18 106.574 130.16 106.414 132.4ZM137.128 140.5C137.128 138.54 137.688 136.86 138.808 135.46C139.928 134.02 141.468 132.92 143.428 132.16C145.428 131.36 147.728 130.96 150.328 130.96C151.848 130.96 153.428 131.08 155.068 131.32C156.708 131.56 158.168 131.92 159.448 132.4V129.76C159.448 127.12 158.668 125.02 157.108 123.46C155.548 121.9 153.388 121.12 150.628 121.12C148.948 121.12 147.288 121.44 145.648 122.08C144.048 122.68 142.368 123.58 140.608 124.78L139.048 121.9C141.088 120.5 143.088 119.46 145.048 118.78C147.008 118.06 149.008 117.7 151.048 117.7C154.888 117.7 157.928 118.8 160.168 121C162.408 123.2 163.528 126.24 163.528 130.12V144.58C163.528 145.14 163.648 145.56 163.888 145.84C164.128 146.08 164.508 146.22 165.028 146.26V149.5C164.588 149.54 164.208 149.58 163.888 149.62C163.568 149.66 163.328 149.66 163.168 149.62C162.168 149.58 161.408 149.26 160.888 148.66C160.368 148.06 160.088 147.42 160.048 146.74L159.988 144.46C158.588 146.26 156.768 147.66 154.528 148.66C152.288 149.62 150.008 150.1 147.688 150.1C145.688 150.1 143.868 149.68 142.228 148.84C140.628 147.96 139.368 146.8 138.448 145.36C137.568 143.88 137.128 142.26 137.128 140.5ZM158.068 142.9C158.508 142.34 158.848 141.8 159.088 141.28C159.328 140.76 159.448 140.3 159.448 139.9V135.34C158.088 134.82 156.668 134.42 155.188 134.14C153.748 133.86 152.288 133.72 150.808 133.72C147.888 133.72 145.528 134.3 143.728 135.46C141.928 136.62 141.028 138.2 141.028 140.2C141.028 141.36 141.328 142.46 141.928 143.5C142.528 144.5 143.408 145.34 144.568 146.02C145.728 146.66 147.088 146.98 148.648 146.98C150.608 146.98 152.428 146.6 154.108 145.84C155.828 145.08 157.148 144.1 158.068 142.9ZM170.244 133.96C170.244 131 170.844 128.3 172.044 125.86C173.284 123.38 174.984 121.4 177.144 119.92C179.304 118.44 181.764 117.7 184.524 117.7C187.124 117.7 189.444 118.4 191.484 119.8C193.564 121.16 195.184 122.82 196.344 124.78V105.7H200.424V144.58C200.424 145.14 200.544 145.56 200.784 145.84C201.024 146.08 201.384 146.22 201.864 146.26V149.5C201.064 149.62 200.444 149.66 200.004 149.62C199.164 149.58 198.424 149.24 197.784 148.6C197.144 147.96 196.824 147.26 196.824 146.5V143.44C195.584 145.48 193.904 147.1 191.784 148.3C189.664 149.5 187.464 150.1 185.184 150.1C183.024 150.1 181.024 149.66 179.184 148.78C177.384 147.9 175.804 146.7 174.444 145.18C173.124 143.66 172.084 141.94 171.324 140.02C170.604 138.06 170.244 136.04 170.244 133.96ZM196.344 138.76V129.1C195.824 127.66 194.984 126.36 193.824 125.2C192.664 124 191.344 123.06 189.864 122.38C188.424 121.66 186.984 121.3 185.544 121.3C183.864 121.3 182.344 121.66 180.984 122.38C179.624 123.06 178.444 124 177.444 125.2C176.484 126.4 175.744 127.76 175.224 129.28C174.704 130.8 174.444 132.36 174.444 133.96C174.444 135.64 174.724 137.24 175.284 138.76C175.884 140.28 176.724 141.64 177.804 142.84C178.884 144 180.124 144.9 181.524 145.54C182.924 146.18 184.444 146.5 186.084 146.5C187.124 146.5 188.204 146.3 189.324 145.9C190.444 145.5 191.504 144.96 192.504 144.28C193.544 143.56 194.404 142.72 195.084 141.76C195.764 140.8 196.184 139.8 196.344 138.76ZM219.928 150.1C217.368 150.1 214.988 149.68 212.788 148.84C210.588 148 208.688 146.72 207.088 145L208.768 142.12C210.528 143.76 212.288 144.96 214.048 145.72C215.848 146.44 217.748 146.8 219.748 146.8C222.188 146.8 224.168 146.32 225.688 145.36C227.208 144.36 227.968 142.94 227.968 141.1C227.968 139.86 227.588 138.92 226.828 138.28C226.108 137.6 225.048 137.06 223.648 136.66C222.288 136.22 220.648 135.76 218.728 135.28C216.568 134.68 214.748 134.06 213.268 133.42C211.828 132.74 210.728 131.9 209.968 130.9C209.248 129.86 208.888 128.52 208.888 126.88C208.888 124.84 209.388 123.16 210.388 121.84C211.428 120.48 212.828 119.46 214.588 118.78C216.388 118.06 218.388 117.7 220.588 117.7C222.988 117.7 225.108 118.08 226.948 118.84C228.788 119.6 230.288 120.66 231.448 122.02L229.468 124.78C228.348 123.5 227.008 122.56 225.448 121.96C223.928 121.32 222.228 121 220.348 121C219.068 121 217.848 121.18 216.688 121.54C215.528 121.86 214.568 122.42 213.808 123.22C213.088 123.98 212.728 125.04 212.728 126.4C212.728 127.52 213.008 128.4 213.568 129.04C214.128 129.64 214.968 130.16 216.088 130.6C217.208 131 218.588 131.44 220.228 131.92C222.588 132.56 224.648 133.22 226.408 133.9C228.168 134.54 229.528 135.38 230.488 136.42C231.448 137.46 231.928 138.92 231.928 140.8C231.928 143.72 230.828 146 228.628 147.64C226.428 149.28 223.528 150.1 219.928 150.1Z" fill="black"/>
<g clip-path="url(#clip0_4_184)">
<path d="M433.812 167.803H326C322.27 167.803 318.694 166.322 316.056 163.684C313.419 161.047 311.938 157.47 311.938 153.741C311.938 150.011 313.419 146.434 316.056 143.797C318.694 141.16 322.27 139.678 326 139.678H433.812" fill="white"/>
<path d="M433.812 167.803H326C322.27 167.803 318.694 166.322 316.056 163.684C313.419 161.047 311.938 157.47 311.938 153.741C311.938 150.011 313.419 146.434 316.056 143.797C318.694 141.16 322.27 139.678 326 139.678H433.812" stroke="black" stroke-width="3" stroke-linejoin="round"/>
<path d="M433.812 167.803C424.831 159.125 424.019 147.638 433.812 139.678V130.303H326C319.784 130.303 313.823 132.773 309.427 137.168C305.032 141.563 302.562 147.525 302.562 153.741C302.562 159.957 305.032 165.918 309.427 170.314C313.823 174.709 319.784 177.178 326 177.178H433.812V167.803Z" fill="white" stroke="black" stroke-width="3" stroke-linecap="round" stroke-linejoin="round"/>
<path d="M304.994 48.2313C304.802 45.3513 305.364 42.471 306.626 39.8749C307.887 37.2787 309.804 35.0567 312.188 33.4282C312.188 33.4282 323.822 54.3657 333.125 63.6782" fill="white"/>
<path d="M304.994 48.2313C304.802 45.3513 305.364 42.471 306.626 39.8749C307.887 37.2787 309.804 35.0567 312.188 33.4282C312.188 33.4282 323.822 54.3657 333.125 63.6782" stroke="black" stroke-width="3" stroke-linecap="round" stroke-linejoin="round"/>
<path d="M337.631 61.5032L339.169 59.9657C342.059 57.0756 345.861 55.2761 349.929 54.8733C353.996 54.4705 358.077 55.4893 361.478 57.7563L363.381 59.0251C363.381 59.0251 354.466 73.7126 348.403 85.847C337.919 106.816 319.169 107.894 298.225 89.2845C291.78 83.7102 287.315 76.1974 285.5 67.872C285.5 67.872 293.572 75.3032 302.875 75.3032C298.172 70.9274 295.136 65.0527 294.287 58.6848C293.438 52.317 294.829 45.8521 298.222 40.397C298.222 40.397 310.409 57.8313 322.759 64.0282C324.268 64.7698 325.908 65.2066 327.586 65.3139C329.264 65.4211 330.947 65.1966 332.538 64.6532C334.457 64.0136 336.201 62.935 337.631 61.5032Z" fill="white" stroke="black" stroke-width="3" stroke-linecap="round" stroke-linejoin="round"/>
<path d="M434.531 47.9407C434.667 45.1073 434.076 42.2864 432.813 39.7461C431.551 37.2059 429.659 35.031 427.319 33.4282C427.319 33.4282 415.684 54.3657 406.381 63.6782" fill="white"/>
<path d="M434.531 47.9407C434.667 45.1073 434.076 42.2864 432.813 39.7461C431.551 37.2059 429.659 35.031 427.319 33.4282C427.319 33.4282 415.684 54.3657 406.381 63.6782" stroke="black" stroke-width="3" stroke-linecap="round" stroke-linejoin="round"/>
<path d="M401.872 61.5032L400.334 59.9657C397.444 57.0756 393.642 55.2761 389.575 54.8733C385.507 54.4705 381.426 55.4893 378.025 57.7563L376.125 59.0251C376.125 59.0251 385.037 73.7126 391.103 85.847C401.587 106.816 420.337 107.894 441.281 89.2845C447.724 83.7127 452.189 76.2034 454.006 67.8813C454.006 67.8813 445.934 75.3032 436.625 75.3032C441.329 70.9278 444.366 65.0533 445.215 58.6854C446.064 52.3175 444.674 45.8524 441.281 40.397C441.281 40.397 429.078 57.8313 416.741 64.0282C415.232 64.7698 413.593 65.2068 411.915 65.314C410.238 65.4213 408.556 65.1967 406.966 64.6532C405.046 64.0124 403.303 62.934 401.872 61.5032Z" fill="white" stroke="black" stroke-width="3" stroke-linecap="round" stroke-linejoin="round"/>
<path d="M361.938 111.553C365.389 111.553 368.188 108.755 368.188 105.303C368.188 101.851 365.389 99.0532 361.938 99.0532C358.486 99.0532 355.688 101.851 355.688 105.303C355.688 108.755 358.486 111.553 361.938 111.553Z" fill="white" stroke="black" stroke-width="3" stroke-linecap="round" stroke-linejoin="round"/>
<path d="M421.312 120.928C423.038 120.928 424.438 119.529 424.438 117.803C424.438 116.077 423.038 114.678 421.312 114.678C419.587 114.678 418.188 116.077 418.188 117.803C418.188 119.529 419.587 120.928 421.312 120.928Z" fill="white"/>
<path d="M440.062 0.5V4.92187" stroke="black" stroke-width="3" stroke-linecap="round" stroke-linejoin="round"/>
<path d="M440.062 18.1843V22.6062" stroke="black" stroke-width="3" stroke-linecap="round" stroke-linejoin="round"/>
<path d="M429.009 11.5532H433.431" stroke="black" stroke-width="3" stroke-linecap="round" stroke-linejoin="round"/>
<path d="M446.694 11.5532H451.116" stroke="black" stroke-width="3" stroke-linecap="round" stroke-linejoin="round"/>
<path d="M415.062 149.053H365.062" stroke="black" stroke-width="3" stroke-linecap="round" stroke-linejoin="round"/>
<path d="M386.938 158.428H415.062" stroke="black" stroke-width="3" stroke-linecap="round" stroke-linejoin="round"/>
<path d="M324.438 149.053H355.688" stroke="black" stroke-width="3" stroke-linecap="round" stroke-linejoin="round"/>
<path d="M349.438 158.428H368.188" stroke="black" stroke-width="3" stroke-linecap="round" stroke-linejoin="round"/>
<path d="M371.312 30.3032V14.6782" stroke="black" stroke-width="3" stroke-linecap="round" stroke-linejoin="round"/>
<path d="M358.812 30.3032L352.562 24.0532" stroke="black" stroke-width="3" stroke-linecap="round" stroke-linejoin="round"/>
<path d="M383.812 30.3032L391.625 22.4907" stroke="black" stroke-width="3" stroke-linecap="round" stroke-linejoin="round"/>
</g>
<rect x="271" y="2" width="197" height="197" rx="98.5" stroke="black" stroke-width="3"/>
<defs>
<clipPath id="clip0_4_184">
<rect x="269.5" y="0.5" width="200" height="200" rx="100" fill="white"/>
</clipPath>
</defs>
</svg>

<svg xmlns="http://www.w3.org/2000/svg" width="470" height="201" fill="none" viewBox="0 0 470 201"><path fill="#000" d="M22.94 93.8q-4.26 0-7.92-1.8-3.66-1.86-6.36-4.98t-4.2-6.96q-1.44-3.84-1.44-7.92 0-4.32 1.44-8.16 1.5-3.9 4.14-6.9t6.24-4.74 7.86-1.74q6.3 0 10.26 2.58t6 6.72l-3.24 2.16q-2.04-3.96-5.46-5.82t-7.62-1.86q-3.54 0-6.42 1.5-2.82 1.5-4.86 4.02a18.4 18.4 0 0 0-3.12 5.7q-1.02 3.18-1.02 6.6 0 3.6 1.2 6.84 1.2 3.18 3.42 5.7 2.22 2.46 5.1 3.9 2.94 1.38 6.3 1.38 3.9 0 7.38-1.92 3.48-1.98 6.66-6.06v4.44q-6.06 7.32-14.34 7.32m13.68-18h-9.48v-3.24h13.02V93.5h-3.54zm26.93-9.96q-4.08.12-7.2 2.28-3.06 2.16-4.32 5.94V93.5h-4.08V62.24h3.84v7.5q1.62-3.3 4.26-5.34 2.7-2.04 5.7-2.28.6-.06 1.02-.06.48 0 .78.06zM81.487 94.1q-3.36 0-6.24-1.26-2.88-1.32-4.98-3.54-2.1-2.28-3.3-5.22-1.14-2.94-1.14-6.3 0-4.38 1.98-8.04 2.04-3.66 5.58-5.82 3.54-2.22 8.04-2.22 4.62 0 8.04 2.22 3.48 2.22 5.46 5.88 1.98 3.6 1.98 7.92v.96q0 .42-.06.66h-26.76q.3 3.36 1.86 6 1.62 2.58 4.14 4.14 2.58 1.5 5.58 1.5 3.06 0 5.76-1.56 2.76-1.56 3.84-4.08l3.54.96q-.96 2.22-2.94 4.02t-4.68 2.82q-2.64.96-5.7.96m-11.52-17.7h23.1q-.24-3.42-1.86-6-1.56-2.58-4.14-4.02-2.52-1.5-5.58-1.5t-5.58 1.5q-2.52 1.44-4.14 4.08-1.56 2.58-1.8 5.94m30.715 8.1q0-2.94 1.68-5.04 1.68-2.16 4.62-3.3 3-1.2 6.9-1.2 2.28 0 4.74.36t4.38 1.08v-2.64q0-3.96-2.34-6.3t-6.48-2.34q-2.52 0-4.98.96-2.4.9-5.04 2.7l-1.56-2.88q3.06-2.1 6-3.12 2.94-1.08 6-1.08 5.76 0 9.12 3.3t3.36 9.12v14.46q0 .84.36 1.26.36.36 1.14.42v3.24q-.66.06-1.14.12t-.72 0q-1.5-.06-2.28-.96t-.84-1.92l-.06-2.28q-2.1 2.7-5.46 4.2-3.36 1.44-6.84 1.44-3 0-5.46-1.26-2.4-1.32-3.78-3.48-1.32-2.22-1.32-4.86m20.94 2.4q.66-.84 1.02-1.62t.36-1.38v-4.56q-2.04-.78-4.26-1.2-2.16-.42-4.38-.42-4.38 0-7.08 1.74t-2.7 4.74q0 1.74.9 3.3.9 1.5 2.64 2.52 1.74.96 4.08.96 2.94 0 5.46-1.14 2.58-1.14 3.96-2.94m29.041 5.1q-.48.18-1.5.66t-2.46.84-3.12.36q-1.74 0-3.3-.66-1.5-.66-2.4-1.98-.9-1.38-.9-3.36V65.48h-4.32v-3.24h4.32V51.68h4.08v10.56h7.2v3.24h-7.2v21.24q.12 1.68 1.2 2.52 1.14.84 2.58.84 1.68 0 3.06-.54 1.38-.6 1.68-.84zm-83.652 57.5v-42.6h18q2.76 0 5.04 1.14t3.96 3.12q1.74 1.92 2.64 4.32.96 2.34.96 4.8 0 3.06-1.2 5.76-1.14 2.7-3.3 4.56-2.1 1.86-4.98 2.46l10.44 16.44h-4.74l-10.02-15.72h-12.6v15.72zm4.2-19.44h13.92q2.52 0 4.38-1.38t2.88-3.6q1.02-2.28 1.02-4.8 0-2.58-1.2-4.74-1.14-2.22-3.12-3.54-1.92-1.38-4.32-1.38h-13.56zm46.722 20.04q-3.36 0-6.24-1.26-2.88-1.32-4.98-3.54-2.1-2.28-3.3-5.22-1.14-2.94-1.14-6.3 0-4.38 1.98-8.04 2.04-3.66 5.58-5.82 3.54-2.22 8.04-2.22 4.62 0 8.04 2.22 3.48 2.22 5.46 5.88 1.98 3.6 1.98 7.92v.96q0 .42-.06.66h-26.76q.3 3.36 1.86 6 1.62 2.58 4.14 4.14 2.58 1.5 5.58 1.5 3.06 0 5.76-1.56 2.76-1.56 3.84-4.08l3.54.96q-.96 2.22-2.94 4.02t-4.68 2.82q-2.64.96-5.7.96m-11.52-17.7h23.1q-.24-3.42-1.86-6-1.56-2.58-4.14-4.02-2.52-1.5-5.58-1.5t-5.58 1.5q-2.52 1.44-4.14 4.08-1.56 2.58-1.8 5.94m30.714 8.1q0-2.94 1.68-5.04 1.68-2.16 4.62-3.3 3-1.2 6.9-1.2 2.28 0 4.74.36t4.38 1.08v-2.64q0-3.96-2.34-6.3t-6.48-2.34q-2.52 0-4.98.96-2.4.9-5.04 2.7l-1.56-2.88q3.06-2.1 6-3.12 2.94-1.08 6-1.08 5.76 0 9.12 3.3t3.36 9.12v14.46q0 .84.36 1.26.36.36 1.14.42v3.24q-.66.06-1.14.12t-.72 0q-1.5-.06-2.28-.96t-.84-1.92l-.06-2.28q-2.1 2.7-5.46 4.2-3.36 1.44-6.84 1.44-3 0-5.46-1.26-2.4-1.32-3.78-3.48-1.32-2.22-1.32-4.86m20.94 2.4q.66-.84 1.02-1.62t.36-1.38v-4.56q-2.04-.78-4.26-1.2-2.16-.42-4.38-.42-4.38 0-7.08 1.74t-2.7 4.74q0 1.74.9 3.3.9 1.5 2.64 2.52 1.74.96 4.08.96 2.94 0 5.46-1.14 2.58-1.14 3.96-2.94m12.176-8.94q0-4.44 1.8-8.1 1.86-3.72 5.1-5.94t7.38-2.22q3.9 0 6.96 2.1 3.12 2.04 4.86 4.98V105.7h4.08v38.88q0 .84.36 1.26.36.36 1.08.42v3.24q-1.2.18-1.86.12-1.26-.06-2.22-1.02t-.96-2.1v-3.06q-1.86 3.06-5.04 4.86t-6.6 1.8q-3.24 0-6-1.32-2.7-1.32-4.74-3.6a17.8 17.8 0 0 1-3.12-5.16 17.4 17.4 0 0 1-1.08-6.06m26.1 4.8v-9.66q-.78-2.16-2.52-3.9-1.74-1.8-3.96-2.82-2.16-1.08-4.32-1.08-2.52 0-4.56 1.08-2.04 1.02-3.54 2.82-1.44 1.8-2.22 4.08t-.78 4.68q0 2.52.84 4.8.9 2.28 2.52 4.08 1.62 1.74 3.72 2.7t4.56.96q1.56 0 3.24-.6t3.18-1.62q1.56-1.08 2.58-2.52t1.26-3m23.584 11.34q-3.84 0-7.14-1.26t-5.7-3.84l1.68-2.88q2.64 2.46 5.28 3.6 2.7 1.08 5.7 1.08 3.66 0 5.94-1.44 2.28-1.5 2.28-4.26 0-1.86-1.14-2.82-1.08-1.02-3.18-1.62-2.04-.66-4.92-1.38-3.24-.9-5.46-1.86-2.16-1.02-3.3-2.52-1.08-1.56-1.08-4.02 0-3.06 1.5-5.04 1.56-2.04 4.2-3.06 2.7-1.08 6-1.08 3.6 0 6.36 1.14t4.5 3.18l-1.98 2.76a10.1 10.1 0 0 0-4.02-2.82q-2.28-.96-5.1-.96-1.92 0-3.66.54-1.74.48-2.88 1.68-1.08 1.14-1.08 3.18 0 1.68.84 2.64.84.9 2.52 1.56 1.68.6 4.14 1.32 3.54.96 6.18 1.98 2.64.96 4.08 2.52t1.44 4.38q0 4.38-3.3 6.84t-8.7 2.46"/><g clip-path="url(#a)"><path fill="#fff" d="M433.812 167.803H326a14.06 14.06 0 0 1-9.944-24.006 14.07 14.07 0 0 1 9.944-4.119h107.812"/><path stroke="#000" stroke-linejoin="round" stroke-width="3" d="M433.812 167.803H326a14.06 14.06 0 0 1-9.944-24.006 14.07 14.07 0 0 1 9.944-4.119h107.812"/><path fill="#fff" stroke="#000" stroke-linecap="round" stroke-linejoin="round" stroke-width="3" d="M433.812 167.803c-8.981-8.678-9.793-20.165 0-28.125v-9.375H326a23.44 23.44 0 0 0-23.438 23.438A23.44 23.44 0 0 0 326 177.178h107.812z"/><path fill="#fff" d="M304.994 48.231a16.59 16.59 0 0 1 7.194-14.803s11.634 20.938 20.937 30.25"/><path stroke="#000" stroke-linecap="round" stroke-linejoin="round" stroke-width="3" d="M304.994 48.231a16.59 16.59 0 0 1 7.194-14.803s11.634 20.938 20.937 30.25"/><path fill="#fff" stroke="#000" stroke-linecap="round" stroke-linejoin="round" stroke-width="3" d="m337.631 61.503 1.538-1.537a17.68 17.68 0 0 1 22.309-2.21l1.903 1.27s-8.915 14.687-14.978 26.821c-10.484 20.969-29.234 22.047-50.178 3.438A39.4 39.4 0 0 1 285.5 67.872s8.072 7.431 17.375 7.431a27.7 27.7 0 0 1-4.653-34.906s12.187 17.434 24.537 23.631a12.8 12.8 0 0 0 9.779.625 13 13 0 0 0 5.093-3.15"/><path fill="#fff" d="M434.531 47.94a16.62 16.62 0 0 0-7.212-14.512s-11.635 20.938-20.938 30.25"/><path stroke="#000" stroke-linecap="round" stroke-linejoin="round" stroke-width="3" d="M434.531 47.94a16.62 16.62 0 0 0-7.212-14.512s-11.635 20.938-20.938 30.25"/><path fill="#fff" stroke="#000" stroke-linecap="round" stroke-linejoin="round" stroke-width="3" d="m401.872 61.503-1.538-1.537a17.68 17.68 0 0 0-22.309-2.21l-1.9 1.27s8.912 14.687 14.978 26.821c10.484 20.969 29.234 22.047 50.178 3.438a39.4 39.4 0 0 0 12.725-21.404s-8.072 7.422-17.381 7.422a27.694 27.694 0 0 0 4.656-34.906s-12.203 17.434-24.54 23.631a12.8 12.8 0 0 1-9.775.625 13.04 13.04 0 0 1-5.094-3.15m-39.934 50.05a6.25 6.25 0 1 0 0-12.5 6.25 6.25 0 0 0 0 12.5"/><path fill="#fff" d="M421.312 120.928a3.126 3.126 0 1 0 0-6.251 3.126 3.126 0 0 0 0 6.251"/><path stroke="#000" stroke-linecap="round" stroke-linejoin="round" stroke-width="3" d="M440.062.5v4.422m0 13.262v4.422m-11.053-11.053h4.422m13.263 0h4.422m-36.054 137.5h-50m21.876 9.375h28.124m-90.624-9.375h31.25m-6.25 9.375h18.75m3.124-128.125V14.678m-12.5 15.625-6.25-6.25m31.25 6.25 7.813-7.812"/></g><rect width="197" height="197" x="271" y="2" stroke="#000" stroke-width="3" rx="98.5"/><defs><clipPath id="a"><rect width="200" height="200" x="269.5" y=".5" fill="#fff" rx="100"/></clipPath></defs></svg>
